X:1
T:RVW2/1/21 The Old Horse
T:RVW2/1/21 The Old Horse
T:Transcribed by Simon Furey and Lewis Jones
C:Transcribed by Simon Furey and Lewis Jones
L:1/8
Q:1/4=90
M:6/8
K:F
V:1 treble 
V:1
"^(editorial suggestion)" C | F2 F G2 A |"^(a)" F3 C2 C | F2 F G2 A | B3- B2 A | B2 A G2 F | %6
 F3 CDE | F2 D C2 A, | B,3 A,2 B, | C3 D2 E | F3- F2 || C | F2 F G2 A |"^(a) var." F2 F C2 C | %14
 F2 F G2 A | B3- B2 A | B2 A G2 F | F3 CDE | F2 D C2 A, | B,3 A,2 B, | C3 D2 E | F3- F2 |] %22

